images/svg/logo.svg

<svg width="97" height="26" viewBox="0 0 97 26" fill="none" xmlns="http://www.w3.org/2000/svg">
<path fill-rule="evenodd" clip-rule="evenodd" d="M67.2747 25V19.656L69.1947 17.544L73.6427 25H79.0827L72.7787 14.568L79.1147 7.528H73.1947L67.2747 13.832V0.776001H62.4747V25H67.2747ZM43.5555 24.2C42.1475 24.9893 40.5795 25.384 38.8515 25.384C37.1235 25.384 35.5502 24.9893 34.1315 24.2C32.7129 23.4107 31.5822 22.328 30.7395 20.952C29.8969 19.576 29.4755 18.0133 29.4755 16.264C29.4755 14.4933 29.8969 12.9253 30.7395 11.56C31.5822 10.1947 32.7129 9.11733 34.1315 8.328C35.5502 7.53867 37.1235 7.144 38.8515 7.144C40.5795 7.144 42.1475 7.53867 43.5555 8.328C44.9635 9.11733 46.0889 10.1947 46.9315 11.56C47.7742 12.9253 48.1955 14.4933 48.1955 16.264C48.1955 18.0133 47.7742 19.576 46.9315 20.952C46.0889 22.328 44.9635 23.4107 43.5555 24.2ZM14.592 13.8L10.528 25H6.36799L0.35199 7.528H5.31199L8.70399 17.672L12.512 7.528H16.672L20.448 17.672L23.84 7.528H28.832L22.784 25H18.624L14.592 13.8ZM38.8515 21.064C37.5502 21.064 36.4889 20.616 35.6675 19.72C34.8462 18.824 34.4355 17.672 34.4355 16.264C34.4355 14.8773 34.8462 13.7307 35.6675 12.824C36.4889 11.9173 37.5502 11.464 38.8515 11.464C40.1529 11.464 41.2089 11.9173 42.0195 12.824C42.8302 13.7307 43.2355 14.8773 43.2355 16.264C43.2355 17.672 42.8302 18.824 42.0195 19.72C41.2089 20.616 40.1529 21.064 38.8515 21.064ZM55.3671 15.592V25H50.5671V7.528H55.0471V10.152C55.4951 9.064 56.1298 8.32267 56.9511 7.928C57.7724 7.53333 58.7164 7.336 59.7831 7.336H60.8071V11.496H59.3031C58.1298 11.496 57.1804 11.8533 56.4551 12.568C55.7298 13.2827 55.3671 14.2907 55.3671 15.592ZM83.5982 1.16V4.68H81.6782V1.16H83.5982ZM83.5982 25V8.008H81.6782V25H83.5982ZM95.3138 25.16C95.0151 25.1813 94.7804 25.192 94.6098 25.192C93.1804 25.192 92.0871 24.792 91.3298 23.992C90.5724 23.192 90.1938 22.024 90.1938 20.488V9.832H86.9938V8.008H88.2098C88.8284 8.008 89.3138 7.816 89.6658 7.432C90.0178 7.048 90.1938 6.52533 90.1938 5.864V4.04H92.1138V8.008H95.8258V9.832H92.1138V20.488C92.1138 20.9573 92.1831 21.416 92.3218 21.864C92.4604 22.312 92.7324 22.6747 93.1378 22.952C93.5431 23.2293 94.1298 23.368 94.8978 23.368C95.0684 23.368 95.2764 23.3573 95.5218 23.336C95.7671 23.3147 95.9644 23.2933 96.1138 23.272V25.032C95.8791 25.096 95.6124 25.1387 95.3138 25.16Z" fill="white"/>
</svg>

<svg xmlns="http://www.w3.org/2000/svg" width="97" height="26" fill="none"><path fill="#fff" fill-rule="evenodd" d="M67.275 25v-5.344l1.92-2.112L73.643 25h5.44l-6.304-10.432 6.336-7.04h-5.92l-5.92 6.304V.776h-4.8V25h4.8Zm-23.72-.8c-1.407.79-2.975 1.184-4.703 1.184-1.728 0-3.302-.395-4.72-1.184a9.097 9.097 0 0 1-3.392-3.248c-.843-1.376-1.264-2.939-1.264-4.688 0-1.77.42-3.339 1.264-4.704a9.139 9.139 0 0 1 3.392-3.232c1.418-.79 2.992-1.184 4.72-1.184 1.728 0 3.296.395 4.704 1.184a9.173 9.173 0 0 1 3.376 3.232c.842 1.365 1.264 2.933 1.264 4.704 0 1.75-.422 3.312-1.264 4.688a9.131 9.131 0 0 1-3.377 3.248ZM14.593 13.8 10.528 25h-4.16L.352 7.528h4.96l3.392 10.144 3.808-10.144h4.16l3.776 10.144L23.84 7.528h4.992L22.784 25h-4.16l-4.032-11.2Zm24.26 7.264c-1.302 0-2.363-.448-3.184-1.344-.822-.896-1.233-2.048-1.233-3.456 0-1.387.411-2.533 1.232-3.44.822-.907 1.883-1.36 3.184-1.36 1.302 0 2.358.453 3.169 1.36.81.907 1.215 2.053 1.215 3.44 0 1.408-.405 2.56-1.215 3.456-.811.896-1.867 1.344-3.169 1.344Zm16.515-5.472V25h-4.8V7.528h4.48v2.624c.448-1.088 1.083-1.83 1.904-2.224.821-.395 1.765-.592 2.832-.592h1.024v4.16h-1.504c-1.173 0-2.123.357-2.848 1.072-.725.715-1.088 1.723-1.088 3.024ZM83.598 1.16v3.52h-1.92V1.16h1.92Zm0 23.84V8.008h-1.92V25h1.92Zm11.716.16c-.299.021-.534.032-.704.032-1.43 0-2.523-.4-3.28-1.2-.758-.8-1.136-1.968-1.136-3.504V9.832h-3.2V8.008h1.216c.618 0 1.104-.192 1.456-.576.352-.384.528-.907.528-1.568V4.04h1.92v3.968h3.712v1.824h-3.712v10.656c0 .47.07.928.208 1.376.138.448.41.81.816 1.088.405.277.992.416 1.76.416a11.303 11.303 0 0 0 1.216-.096v1.76a4.185 4.185 0 0 1-.8.128Z" clip-rule="evenodd"/></svg>
